app/public/dtpr-icons/zero-knowledge-proof.svg

<svg width="36" height="36" viewBox="0 0 36 36" fill="none" xmlns="http://www.w3.org/2000/svg">
<rect x="2" y="2" width="32" height="32" rx="16" stroke="black" stroke-width="2"/>
<path d="M22.14 18.5C22.14 19.5 22.04 20.35 21.84 21.05C21.64 21.75 21.36 22.32 21.01 22.75C20.65 23.19 20.22 23.5 19.71 23.7C19.2 23.9 18.64 24 18.01 24C17.39 24 16.83 23.9 16.32 23.7C15.81 23.5 15.37 23.19 15.01 22.75C14.65 22.31 14.36 21.74 14.16 21.05C13.96 20.35 13.86 19.5 13.86 18.5V16.46C13.86 15.46 13.96 14.61 14.16 13.91C14.36 13.21 14.64 12.65 15 12.22C15.36 11.79 15.8 11.48 16.31 11.29C16.81 11.1 17.38 11 18 11C18.63 11 19.19 11.1 19.7 11.29C20.21 11.48 20.65 11.79 21.01 12.22C21.37 12.65 21.65 13.21 21.85 13.91C22.05 14.61 22.15 15.45 22.15 16.46V18.5H22.14ZM20.03 16.14C20.03 15.5 19.98 14.96 19.9 14.52C19.81 14.08 19.68 13.73 19.5 13.46C19.33 13.19 19.11 13 18.86 12.88C18.61 12.75 18.32 12.69 18 12.69C17.68 12.69 17.39 12.75 17.14 12.87C16.89 12.99 16.67 13.18 16.5 13.45C16.33 13.72 16.19 14.07 16.1 14.51C16.01 14.95 15.97 15.49 15.97 16.13V18.8C15.97 19.44 16.02 19.98 16.11 20.42C16.2 20.87 16.34 21.23 16.51 21.51C16.68 21.79 16.9 21.99 17.15 22.12C17.4 22.25 17.69 22.31 18.02 22.31C18.35 22.31 18.64 22.25 18.89 22.12C19.14 21.99 19.35 21.79 19.52 21.51C19.69 21.23 19.82 20.87 19.91 20.42C20 19.97 20.04 19.43 20.04 18.8V16.14H20.03Z" fill="black"/>
<path fill-rule="evenodd" clip-rule="evenodd" d="M20.4785 27.0669H18.8885V26.1109C18.8885 25.6199 18.4905 25.2219 17.9995 25.2219C17.5095 25.2219 17.1115 25.6199 17.1115 26.1109V27.0669H17.1095H15.5185C15.1185 27.0669 14.9225 27.5469 15.2075 27.8219L17.6875 30.3109C17.8655 30.4889 18.1405 30.4889 18.3185 30.3109L20.7985 27.8309C21.0745 27.5469 20.8785 27.0669 20.4785 27.0669Z" fill="black"/>
<path fill-rule="evenodd" clip-rule="evenodd" d="M18 9.389C18.491 9.389 18.889 8.991 18.889 8.5V6.444C18.889 5.954 18.491 5.556 18 5.556C17.509 5.556 17.111 5.954 17.111 6.444V8.5C17.111 8.991 17.509 9.389 18 9.389Z" fill="black"/>
</svg>

<svg xmlns="http://www.w3.org/2000/svg" width="36" height="36" fill="none"><rect width="32" height="32" x="2" y="2" stroke="#000" stroke-width="2" rx="16"/><path fill="#000" d="M22.14 18.5q0 1.5-.3 2.55c-.2.7-.48 1.27-.83 1.7-.36.44-.79.75-1.3.95s-1.07.3-1.7.3c-.62 0-1.18-.1-1.69-.3s-.95-.51-1.31-.95-.65-1.01-.85-1.7q-.3-1.05-.3-2.55v-2.04q0-1.5.3-2.55c.2-.7.48-1.26.84-1.69s.8-.74 1.31-.93c.5-.19 1.07-.29 1.69-.29.63 0 1.19.1 1.7.29s.95.5 1.31.93.64.99.84 1.69.3 1.54.3 2.55v2.04zm-2.11-2.36c0-.64-.05-1.18-.13-1.62-.09-.44-.22-.79-.4-1.06-.17-.27-.39-.46-.64-.58-.25-.13-.54-.19-.86-.19s-.61.06-.86.18-.47.31-.64.58-.31.62-.4 1.06-.13.98-.13 1.62v2.67c0 .64.05 1.18.14 1.62.09.45.23.81.4 1.09s.39.48.64.61.54.19.87.19.62-.06.87-.19.46-.33.63-.61.3-.64.39-1.09.13-.99.13-1.62v-2.66z"/><path fill="#000" fill-rule="evenodd" d="M20.479 27.067h-1.59v-.956a.889.889 0 1 0-1.777 0v.956h-1.593a.44.44 0 0 0-.312.755l2.48 2.489a.44.44 0 0 0 .631 0l2.48-2.48a.45.45 0 0 0-.32-.764M18 9.389a.89.89 0 0 0 .889-.889V6.444a.889.889 0 0 0-1.778 0V8.5c0 .491.398.889.889.889" clip-rule="evenodd"/></svg>
